cookie-law-info/lite/admin/dist/img/star.svg

<svg width="16" height="17" viewBox="0 0 16 17" fill="none" xmlns="http://www.w3.org/2000/svg">
<g id="ic:round-star">
<path id="Vector" d="M7.99956 12.0135L10.7662 13.6868C11.2729 13.9935 11.8929 13.5402 11.7596 12.9668L11.0262 9.82017L13.4729 7.70017C13.9196 7.3135 13.6796 6.58017 13.0929 6.5335L9.8729 6.26017L8.61289 3.28684C8.38623 2.74684 7.61289 2.74684 7.38623 3.28684L6.12623 6.2535L2.90623 6.52684C2.31956 6.5735 2.07956 7.30684 2.52623 7.6935L4.97289 9.8135L4.23956 12.9602C4.10623 13.5335 4.72623 13.9868 5.23289 13.6802L7.99956 12.0135Z" fill="white"/>
</g>
</svg>

<svg width="16" height="17" fill="none" xmlns="http://www.w3.org/2000/svg"><path d="m8 12.014 2.766 1.673a.665.665 0 0 0 .994-.72l-.734-3.147 2.447-2.12a.665.665 0 0 0-.38-1.167l-3.22-.273-1.26-2.973a.667.667 0 0 0-1.227 0l-1.26 2.966-3.22.274a.665.665 0 0 0-.38 1.167l2.447 2.12-.733 3.146a.665.665 0 0 0 .993.72L8 12.014z" fill="#fff"/></svg>
